X:1
T:O God of Bethel - arr. Gibb
T:#
%%score [ ( 1 2 ) ( 3 4 ) ]
L:1/8
Q:1/4=100
M:3/2
K:C
V:1 treble nm="Midi_74"
V:2 treble 
V:3 bass nm="Midi_69"
V:4 bass 
V:1
"^O God of Bethel""^MARTYRS""^Philip Doddridge\n(1702-1751)" D4 | F2 D2 A4 F4 | E2 D2 A4 A4 | %3
w: |||
[M:2/2] c2 A2 Bc d2 |"^arranged by James Gibb\n(1944 - )" A4 A4 |[M:3/2] c2 G2 A4 F4 | %6
w: |||
[M:3/2] E2 D2 A4 c4 | B2 GA B4 A4 | D8 || D4 | F2 D2 A4 F4 | E2 D2 A4 A4 |[M:2/2] c2 A2 Bc d2 | %13
w: |* our * * *||||||
 A4 A4 | c2 G2 A2 F2 |[M:3/2] E2 D2 A4 c4 |[M:3/2] B2 GA _B4 A4 | D4 z8 || D4 | F2 ED (A2 G2) F4 | %20
w: |||||||
 E2 D2 A4 A4 |[M:2/2] cB A2 Bc d2 | A4 A4 | c2 G2 A2 F2 |[M:3/2] E2 D2 A4 c4 | %25
w: |wand'\- * ring foot\- * steps|guide; Give||dai- ly bread, And|
[M:3/2] =B2 GA B4 A4 | D8 D4 |[M:2/2] F2 A2 d2 A2 |[M:3/2] _B2 c2 A4 A4 |[M:2/2] e2 d2 e2 A2 | %30
w: rai- ment * fit pro-|vide. *||||
[M:2/2] ^c4 d4 |[M:3/2] A2 G2 A4 d4 | A2 B2 ^c4 e4 |[M:2/2] df e2 d2 ^c2 | A8 | D4 F2 D2 | %36
w: |||souls * * * *||All praise to|
[M:2/2] A2 F2 E2 D2 | A4 A4 | c2 A2 Bc d2 | A4 A4 | c2 G2 A2 F2 | E2 D2 A4 | c4 B2 GA | _B4 A4 | %44
w: God the Fa- ther|be, All|praise to thee, * O|Son, All|praise, O Ho- ly|Ghost to thee,|While end- less *|a- ges|
 D8- | D8 |] %46
w: run.||
V:2
 A,4 | D2 D2 E4 (A,2 B,2) | C2 D2 E4 F4 |[M:2/2] G2 F2 DE F2 | E4 F4 |[M:3/2] G2 E2 C4 B,4 | %6
w: O|God of Be- thel! *|by whose hand Thy|peo- ple still * ~~~|fed; Who|through this wea- ry|
[M:3/2] C2 D2 E4 C4 | D2 E2 D4 (D2 C2) | A,8 || D4 | F2 D2 A4 F4 | E2 D2 A4 A4 | %12
w: pil- grim- age Hast|all * fa- thers *|led:|Our|vows, our prayers, we|now pre- sent Be-|
[M:2/2] c2 A2 Bc d2 | A4 A4 | c2 G2 A2 F2 |[M:3/2] E2 D2 A4 c4 |[M:3/2] B2 GA _B4 A4 | D4 z8 || %18
w: fore thy throne * of|grace: God|of our fa- thers!|be the God Of|their suc\- * ceed- ing|race.|
 A,4 | C2 A,2 C4 D4 | C2 B,2 C4 C4 |[M:2/2] E2 D2 G2 F2 | E4 F4 | E2 E2 F2 C2 | %24
w: Through|each per- plex- ing|path of life Our||||
[M:3/2] C2 B,2 C4 E4 |[M:3/2] D2 E2 D4 E4 | D8 D4 |[M:2/2] A,2 F2 F2 D2 |[M:3/2] G2 F2 E4 ^F4 | %29
w: |||||
[M:2/2] G2 D2 G2 F2 |[M:2/2] E4 F4 |[M:3/2] E2 D2 C4 A4 | E2 ^F2 E4 A4 |[M:2/2] G2 E2 ^F2 E2 | %34
w: |||||
 ^F8 | z8 |[M:2/2] D4 C2 D2 | E2 D2 E2 ^F2 | E4 (E2 ^F2) | ED ^C2 D2 D2 | C4 A,4 | C2 G,2 A,2 F2 | %42
w: |||||~ ~ ~ ~ ~|~ ~|~ ~ ~ ~|
 G2 F2 D2 D2 | _E2 D2 D4- | D4 ^C4 | A,8 |] %46
w: ~ ~ ~ while|end- less a\-|* ges|run.|
V:3
 F,4 | A,2 F,2 E,4 F,4 | G,2 G,2 C4 C4 |[M:2/2] C2 C2 G,2 A,B, | ^C4 =C4 |[M:3/2] G,2 C2 F,4 F,4 | %6
w: |||* * * are *||* * ~ ~|
[M:3/2] G,2 G,2 C4 E,4 | G,2 G,2 G,4 E,4 | F,8 || z4 | z4 D,4 F,2 D,2 | A,4 F,4 E,2 D,2 | %12
w: ~ ~ ~ ~|~ ~ ~ ~|~||Our vows, our|prayers, we now pre-|
[M:2/2] A,4 A,4 | C2 A,2 B,C D2 | A,4 A,4 |[M:3/2] C2 G,2 A,2 F,2 E,2 D,2 | %16
w: sent Be-|fore thy throne * of|grace: God|of our fa- thers! be the|
[M:3/2] G,4 G,4 A,2 G,A, | _B,2 A,2 F,8 || F,4 | F,2 F,2 A,4 A,4 | G,3 ^F, E,4 A,4 | %21
w: God Of their suc\- *|ceed- ing race.||||
[M:2/2] A,G, ^F,2 G,2 A,B, | ^C4 D4 | =C2 C2 C2 A,2 |[M:3/2] G,2 G,2 E,4 E,4 | %25
w: ||||
[M:3/2] G,2 G,2 G,4 E,4 | ^F,8 D,4 |[M:2/2] F,2 D,2 A,2 F,2 |[M:3/2] E,2 D,2 A,4 A,4 | %29
w: |* O|spread thy cov'- ring|wings a- round, Till|
[M:2/2] C2 A,2 B,C D2 |[M:2/2] A,4 A,4 |[M:3/2] C2 B,2 A,4 F,4 | E,2 D,2 A,4 C4 | %33
w: all our striv\- * ings|cease, And|at our Fa- ther's|loved a- bode Our|
[M:2/2] B,2 G,A, B,2 A,2 | D,8 | z8 |[M:2/2] F,4 A,2 B,2 | C2 D2 C2 A,2 | A,4 (E2 D2) | %39
w: * ar\- * rive in|peace.||All praise to|God the Fa- ther|be, All *|
 CD E2 ^FE D2 | E4 A,4 | C2 G,2 A,2 F,2 | C2 A,2 B,4 | _B,4 A,2 D2 | D4 A,4 | ^F,8 |] %46
w: praise * to thee, * O|Son, All|praise, O Ho- ly|Ghost, to thee,|While end- less|a- ges|run.|
V:4
 D,4 | D,2 D,2 C,4 D,4 | C,2 B,,2 A,,4 F,4 |[M:2/2] E,2 F,2 G,2 D,2 | A,4 F,4 | %5
w: |||||
[M:3/2] E,2 C,2 F,4 D,4 |[M:3/2] C,2 B,,2 A,,4 A,,4 | B,,2 C,2 G,,4 A,,4 | D,8 || z4 | %10
w: |||||
 z4 D,4 F,2 D,2 | A,4 F,4 E,2 D,2 |[M:2/2] A,4 A,4 | C2 A,2 B,C D2 | A,4 A,4 | %15
w: |||||
[M:3/2] C2 G,2 A,2 F,2 E,2 D,2 |[M:3/2] G,4 G,4 A,2 G,A, | _B,2 A,2 D,8 || D,4 | A,,2 D,2 E,4 D,4 | %20
w: |||||
 C,2 G,,2 A,,4 F,,4 |[M:2/2] A,,2 D,2 G,,2 D,2 | A,,4 D,4 | A,,B,, C,2 F,,G,, A,,_B,, | %24
w: |||us * each day * our *|
[M:3/2] C,2 G,,2 A,,4 A,,4 |[M:3/2] B,,2 C,2 G,,4 A,,4 | D,8 D,4 |[M:2/2] D,2 D,2 D,2 D,2 | %28
w: ||||
[M:3/2] ^C,2 D,2 A,,4 D,4 |[M:2/2] C,2 F,2 E,2 D,2 |[M:2/2] A,4 F,4 |[M:3/2] C,2 D,2 A,,4 D,4 | %32
w: ||||
 C,2 B,,2 A,,4 A,,4 |[M:2/2] B,,2 C,2 D,2 A,,2 | D,8 | z8 |[M:2/2] D,4 F,2 D,2 | A,2 F,2 E,2 D,2 | %38
w: ||||||
 A,4 A,4 | C2 A,2 B,C D2 | A,4 A,4 | C2 G,2 A,2 F,2 | E,2 D,2 G,4 | G,4 A,2 G,A, | _B,4 A,4 | %45
w: |||||||
 D,8 |] %46
w: |

